X:1
T: I'll neither spin nor weave
C:
R:Jig
Q:180
K:G
M:6/8
L:1/16
c2|B2A2G2 A2F2D2|D4D2 D2E2G2|G4B2 c4e2|d2B2G2 A4c2|B2A2G2 A2F2D2|D4D2 D2E2G2|B2A2G2 A2F2D2|G6 G4c2|
B2A2G2 A2F2D2|D4D2 D2E2G2|G4B2 c4e2|d2B2G2 A4c2|B2A2G2 A2F2D2|D4D2 D2E2G2|B2A2G2 A2F2D2|G6G4G2|
G2A2G2 G2B2d2|e2g2e2 d2B2G2|c4B2 A2B2d2|B2A2G2 A2F2D2|G2A2G2 G2B2d2|e2g2e2 d2B2G2|B2A2G2 A2F2D2|G6G4G2|
G2A2G2 G2B2d2|e2g2e2 d2B2G2|c4B2 A2B2d2|B2A2G2 A2F2D2|G2A2G2 G2B2d2|e2g2e2 d2B2G2|B2A2G2 A2F2D2|G6G4||
